apps/48/scim-setup.svg

<?xml version="1.0" encoding="UTF-8" standalone="no"?>
<!-- Created with Inkscape (http://www.inkscape.org/) -->

<svg
   xmlns:svg="http://www.w3.org/2000/svg"
   xmlns="http://www.w3.org/2000/svg"
   xmlns:xlink="http://www.w3.org/1999/xlink"
   version="1.0"
   width="48"
   height="48"
   id="svg4908">
  <defs
     id="defs4910">
    <linearGradient
       id="linearGradient5554">
      <stop
         id="stop5556"
         style="stop-color:#7d7f79;stop-opacity:1"
         offset="0" />
      <stop
         id="stop5558"
         style="stop-color:#a5a7a2;stop-opacity:1"
         offset="1" />
    </linearGradient>
    <linearGradient
       id="linearGradient5954">
      <stop
         id="stop5956"
         style="stop-color:white;stop-opacity:1"
         offset="0" />
      <stop
         id="stop5958"
         style="stop-color:white;stop-opacity:0"
         offset="1" />
    </linearGradient>
    <linearGradient
       id="linearGradient5946">
      <stop
         id="stop5948"
         style="stop-color:white;stop-opacity:1"
         offset="0" />
      <stop
         id="stop5950"
         style="stop-color:white;stop-opacity:0"
         offset="1" />
    </linearGradient>
    <linearGradient
       id="linearGradient5566">
      <stop
         id="stop5568"
         style="stop-color:#eeeeec;stop-opacity:1"
         offset="0" />
      <stop
         id="stop5570"
         style="stop-color:#eeeeec;stop-opacity:0"
         offset="1" />
    </linearGradient>
    <linearGradient
       id="linearGradient5684">
      <stop
         id="stop5686"
         style="stop-color:white;stop-opacity:1"
         offset="0" />
      <stop
         id="stop5688"
         style="stop-color:#fbfbfa;stop-opacity:0"
         offset="1" />
    </linearGradient>
    <linearGradient
       id="linearGradient5582">
      <stop
         id="stop5584"
         style="stop-color:#f1f1ef;stop-opacity:1"
         offset="0" />
      <stop
         id="stop5586"
         style="stop-color:#dcdfd8;stop-opacity:1"
         offset="1" />
    </linearGradient>
    <radialGradient
       cx="4.0799417"
       cy="5.0786786"
       r="9.9909229"
       fx="4.0799417"
       fy="5.0786786"
       id="radialGradient5588"
       xlink:href="#linearGradient5582"
       gradientUnits="userSpaceOnUse"
       gradientTransform="matrix(1.7890418,0,-2.6448943e-6,2.1631137,5.2958735,0.1971189)" />
    <filter
       x="-0.088849433"
       y="-0.48115385"
       width="1.1776989"
       height="1.9623077"
       color-interpolation-filters="sRGB"
       id="filter5672">
      <feGaussianBlur
         stdDeviation="0.81445312"
         id="feGaussianBlur5674" />
    </filter>
    <linearGradient
       x1="11.05373"
       y1="7.068707"
       x2="11.05373"
       y2="2.6694806"
       id="linearGradient5690"
       xlink:href="#linearGradient5684"
       gradientUnits="userSpaceOnUse"
       gradientTransform="matrix(2.2442119,0,0,2.2364439,-0.8337236,-1.531208)" />
    <linearGradient
       x1="8.0708427"
       y1="9.5091877"
       x2="8.1333427"
       y2="5.6960859"
       id="linearGradient5572"
       xlink:href="#linearGradient5566"
       gradientUnits="userSpaceOnUse"
       gradientTransform="matrix(2.2280313,0,0,2.2364439,-0.5504298,-1.531208)" />
    <linearGradient
       x1="39.767197"
       y1="38.497765"
       x2="40.912174"
       y2="40.530697"
       id="linearGradient5952"
       xlink:href="#linearGradient5946"
       gradientUnits="userSpaceOnUse" />
    <linearGradient
       x1="9.1899414"
       y1="38.01667"
       x2="6.7953143"
       y2="40.66832"
       id="linearGradient5960"
       xlink:href="#linearGradient5954"
       gradientUnits="userSpaceOnUse" />
    <linearGradient
       x1="16.066387"
       y1="26.936842"
       x2="16.362761"
       y2="2.9876688"
       id="linearGradient5560"
       xlink:href="#linearGradient5554"
       gradientUnits="userSpaceOnUse" />
  </defs>
  <g
     id="layer1">
    <rect
       width="22"
       height="4.0625"
       rx="0.739443"
       ry="0.97960275"
       x="0"
       y="17.9375"
       transform="matrix(1.992057,0,0,1.5036837,2.0671198,12.893613)"
       id="rect5606"
       style="opacity:0.21875;fill:#2e3436;fill-opacity:1;stroke:none;filter:url(#filter5672)" />
    <path
       d="m 42.792685,4.6549461 -4.409093,4.1486416 0,29.9458363 4.305937,3.962723 0.103156,-38.0572009 z"
       id="path5548"
       style="fill:#d3d7cf;fill-opacity:1;fill-rule:evenodd;stroke:none" />
    <rect
       width="41.015675"
       height="41.064716"
       rx="2.5"
       ry="2.5"
       x="3.5733004"
       y="3.4876688"
       id="rect4965"
       style="fill:url(#radialGradient5588);fill-opacity:1;stroke:url(#linearGradient5560);stroke-width:1;stroke-linecap:round;stroke-linejoin:miter;stroke-miterlimit:4;stroke-opacity:1;stroke-dasharray:none;stroke-dashoffset:0" />
    <rect
       width="28.971039"
       height="29.070471"
       rx="1.4730127"
       ry="1.4730128"
       x="9.4876699"
       y="8.5536394"
       id="rect5570"
       style="fill:url(#linearGradient5572);fill-opacity:1;stroke:url(#linearGradient5690);stroke-width:0.99999988;stroke-linecap:round;stroke-linejoin:miter;stroke-miterlimit:4;stroke-opacity:1;stroke-dasharray:none;stroke-dashoffset:0" />
    <rect
       width="39.068611"
       height="38.891056"
       rx="1.339058"
       ry="1.339058"
       x="4.5731821"
       y="4.5"
       id="rect5580"
       style="opacity:0.42708333;fill:none;stroke:white;stroke-width:1;stroke-linecap:round;stroke-linejoin:miter;stroke-miterlimit:4;stroke-opacity:1;stroke-dasharray:none;stroke-dashoffset:0" />
    <path
       d="M 41.821189,5.661065 38.067278,9.3248459"
       id="path5574"
       style="fill:#eff0ed;fill-opacity:1;fill-rule:evenodd;stroke:#eff0ed;stroke-width:0.99999994px;stroke-linecap:butt;stroke-linejoin:miter;stroke-opacity:1" />
    <path
       d="m 37.796393,36.820435 3.941606,4.415324"
       id="path5576"
       style="fill:none;stroke:url(#linearGradient5952);stroke-width:0.99999994px;stroke-linecap:butt;stroke-linejoin:miter;stroke-opacity:1" />
    <path
       d="M 10.096013,36.958057 6.1544068,41.373382"
       id="path5578"
       style="fill:none;stroke:url(#linearGradient5960);stroke-width:0.99999994px;stroke-linecap:butt;stroke-linejoin:miter;stroke-opacity:1" />
    <path
       d="m 25.845051,32.582496 c 2.076776,-0.359421 4.286966,-1.515268 4.97129,-3.644187 0.541557,-1.712447 -0.01465,-3.838642 -1.644822,-4.754919 -1.035235,-0.991442 -1.014313,0.802652 -1.485048,1.440296 -1.427674,3.101053 -3.815291,5.942285 -7.061373,7.20204 -1.750108,0.631218 -4.051355,0.692223 -5.382071,-0.816781 -1.237094,-1.548598 -1.131826,-3.792331 -0.396988,-5.539193 0.952142,-2.152479 3.02496,-3.59984 5.202742,-4.332019 0,-1.071258 0,-2.142516 0,-3.213774 -1.616452,0 -3.232903,0 -4.849355,0 0,-0.573888 0,-1.147776 0,-1.721664 1.616452,0 3.232903,0 4.849355,0 0,-0.93735 0,-1.874701 0,-2.812051 0.650406,0 1.300813,0 1.951219,0 0,0.93735 0,1.874701 0,2.812051 3.376375,0 6.75275,0 10.129124,0 0,0.573888 0,1.147776 0,1.721664 -3.376374,0 -6.752749,0 -10.129124,0 0,0.899092 0,1.798184 0,2.697276 2.773302,-0.390603 5.833884,-0.435399 8.308817,1.066627 1.663343,0.982496 2.729827,2.844105 2.707731,4.779269 0.130708,2.294507 -1.203596,4.488997 -3.156032,5.638506 -1.064454,0.659699 -2.272577,1.057722 -3.498966,1.284607 -0.172166,-0.602583 -0.344333,-1.205165 -0.516499,-1.807748 z m 0.746054,-9.268293 C 25.067957,23.111073 23.503855,23.169654 22,23.48637 c 0,2.17121 0,4.34242 0,6.51363 2.201377,-1.665637 3.675333,-4.116339 4.591105,-6.685796 l 0,-1e-6 z m -6.542324,7.804878 c 0,-2.333811 0,-4.667623 0,-7.001434 -1.923183,0.815584 -3.759058,2.533583 -3.730273,4.763271 -0.0539,1.038656 0.418233,2.287257 1.564849,2.489353 0.725557,0.161146 1.479999,-5.64e-4 2.165424,-0.251189 l 0,-10e-7 z"
       id="text2424"
       style="font-size:28.6944046px;font-style:normal;font-weight:normal;fill:black;fill-opacity:1;stroke:none;font-family:Bitstream Vera Sans;-inkscape-font-specification:Bitstream Vera Sans" />
  </g>
</svg>

<?xml version="1.0" encoding="UTF-8" standalone="no"?>
<!-- Created with Inkscape (http://www.inkscape.org/) -->
<svg
   xmlns:dc="http://purl.org/dc/elements/1.1/"
   xmlns:cc="http://creativecommons.org/ns#"
   xmlns:rdf="http://www.w3.org/1999/02/22-rdf-syntax-ns#"
   xmlns:svg="http://www.w3.org/2000/svg"
   xmlns="http://www.w3.org/2000/svg"
   xmlns:xlink="http://www.w3.org/1999/xlink"
   xmlns:sodipodi="http://sodipodi.sourceforge.net/DTD/sodipodi-0.dtd"
   xmlns:inkscape="http://www.inkscape.org/namespaces/inkscape"
   width="48"
   height="48"
   id="svg4908"
   sodipodi:version="0.32"
   inkscape:version="0.46"
   version="1.0"
   sodipodi:docname="scim-setup.svg"
   inkscape:output_extension="org.inkscape.output.svg.inkscape"
   inkscape:export-filename="/home/andreas/project/gnome-icon-theme/32x32/apps/accessories-character-map.png"
   inkscape:export-xdpi="90"
   inkscape:export-ydpi="90"
   sodipodi:docbase="/home/dobey/Projects/gnome-icon-theme/scalable/apps">
  <defs
     id="defs4910">
    <linearGradient
       inkscape:collect="always"
       id="linearGradient5554">
      <stop
         style="stop-color:#7d7f79;stop-opacity:1;"
         offset="0"
         id="stop5556" />
      <stop
         style="stop-color:#a5a7a2;stop-opacity:1"
         offset="1"
         id="stop5558" />
    </linearGradient>
    <linearGradient
       inkscape:collect="always"
       id="linearGradient5954">
      <stop
         style="stop-color:#ffffff;stop-opacity:1;"
         offset="0"
         id="stop5956" />
      <stop
         style="stop-color:#ffffff;stop-opacity:0;"
         offset="1"
         id="stop5958" />
    </linearGradient>
    <linearGradient
       inkscape:collect="always"
       id="linearGradient5946">
      <stop
         style="stop-color:#ffffff;stop-opacity:1;"
         offset="0"
         id="stop5948" />
      <stop
         style="stop-color:#ffffff;stop-opacity:0;"
         offset="1"
         id="stop5950" />
    </linearGradient>
    <linearGradient
       inkscape:collect="always"
       id="linearGradient5566">
      <stop
         style="stop-color:#eeeeec;stop-opacity:1;"
         offset="0"
         id="stop5568" />
      <stop
         style="stop-color:#eeeeec;stop-opacity:0;"
         offset="1"
         id="stop5570" />
    </linearGradient>
    <linearGradient
       inkscape:collect="always"
       id="linearGradient5684">
      <stop
         style="stop-color:#ffffff;stop-opacity:1;"
         offset="0"
         id="stop5686" />
      <stop
         style="stop-color:#fbfbfa;stop-opacity:0"
         offset="1"
         id="stop5688" />
    </linearGradient>
    <linearGradient
       inkscape:collect="always"
       id="linearGradient5582">
      <stop
         style="stop-color:#f1f1ef;stop-opacity:1"
         offset="0"
         id="stop5584" />
      <stop
         style="stop-color:#dcdfd8;stop-opacity:1"
         offset="1"
         id="stop5586" />
    </linearGradient>
    <radialGradient
       inkscape:collect="always"
       xlink:href="#linearGradient5582"
       id="radialGradient5588"
       cx="4.0799417"
       cy="5.0786786"
       fx="4.0799417"
       fy="5.0786786"
       r="9.9909229"
       gradientTransform="matrix(1.7890418,0,-2.6448943e-6,2.1631137,5.2958735,0.1971189)"
       gradientUnits="userSpaceOnUse" />
    <filter
       inkscape:collect="always"
       x="-0.088849433"
       width="1.1776989"
       y="-0.48115385"
       height="1.9623077"
       id="filter5672">
      <feGaussianBlur
         inkscape:collect="always"
         stdDeviation="0.81445312"
         id="feGaussianBlur5674" />
    </filter>
    <linearGradient
       inkscape:collect="always"
       xlink:href="#linearGradient5684"
       id="linearGradient5690"
       x1="11.05373"
       y1="7.068707"
       x2="11.05373"
       y2="2.6694806"
       gradientUnits="userSpaceOnUse"
       gradientTransform="matrix(2.2442119,0,0,2.2364439,-0.8337236,-1.531208)" />
    <linearGradient
       inkscape:collect="always"
       xlink:href="#linearGradient5566"
       id="linearGradient5572"
       x1="8.0708427"
       y1="9.5091877"
       x2="8.1333427"
       y2="5.6960859"
       gradientUnits="userSpaceOnUse"
       gradientTransform="matrix(2.2280313,0,0,2.2364439,-0.5504298,-1.531208)" />
    <linearGradient
       inkscape:collect="always"
       xlink:href="#linearGradient5946"
       id="linearGradient5952"
       x1="39.767197"
       y1="38.497765"
       x2="40.912174"
       y2="40.530697"
       gradientUnits="userSpaceOnUse" />
    <linearGradient
       inkscape:collect="always"
       xlink:href="#linearGradient5954"
       id="linearGradient5960"
       x1="9.1899414"
       y1="38.01667"
       x2="6.7953143"
       y2="40.66832"
       gradientUnits="userSpaceOnUse" />
    <linearGradient
       inkscape:collect="always"
       xlink:href="#linearGradient5554"
       id="linearGradient5560"
       x1="16.066387"
       y1="26.936842"
       x2="16.362761"
       y2="2.9876688"
       gradientUnits="userSpaceOnUse" />
  </defs>
  <sodipodi:namedview
     id="base"
     pagecolor="#ffffff"
     bordercolor="#666666"
     borderopacity="1.0"
     inkscape:pageopacity="0.0"
     inkscape:pageshadow="2"
     inkscape:zoom="5.656854"
     inkscape:cx="14.233055"
     inkscape:cy="29.543404"
     inkscape:current-layer="layer1"
     showgrid="false"
     inkscape:grid-bbox="true"
     inkscape:document-units="px"
     width="48px"
     height="48px"
     inkscape:window-width="1440"
     inkscape:window-height="794"
     inkscape:window-x="0"
     inkscape:window-y="24">
    <inkscape:grid
       type="xygrid"
       id="grid4953" />
  </sodipodi:namedview>
  <metadata
     id="metadata4913">
    <rdf:RDF>
      <cc:Work
         rdf:about="">
        <dc:format>image/svg+xml</dc:format>
        <dc:type
           rdf:resource="http://purl.org/dc/dcmitype/StillImage" />
        <dc:title>Character map</dc:title>
        <dc:date>August 2007</dc:date>
        <dc:creator>
          <cc:Agent>
            <dc:title>Andreas Nilsson</dc:title>
          </cc:Agent>
        </dc:creator>
        <cc:license
           rdf:resource="gpl" />
        <dc:rights>
          <cc:Agent>
            <dc:title>Andreas Nilsson</dc:title>
          </cc:Agent>
        </dc:rights>
      </cc:Work>
    </rdf:RDF>
  </metadata>
  <g
     id="layer1"
     inkscape:label="Layer 1"
     inkscape:groupmode="layer">
    <rect
       style="opacity:0.21875;fill:#2e3436;fill-opacity:1;stroke:none;stroke-width:1;stroke-linecap:round;stroke-linejoin:miter;stroke-miterlimit:4;stroke-dasharray:none;stroke-dashoffset:0;stroke-opacity:1;filter:url(#filter5672)"
       id="rect5606"
       width="22"
       height="4.0625"
       x="0"
       y="17.9375"
       rx="0.739443"
       ry="0.97960275"
       transform="matrix(1.992057,0,0,1.5036837,2.0671198,12.893613)" />
    <path
       style="fill:#d3d7cf;fill-opacity:1;fill-rule:evenodd;stroke:none;stroke-width:1px;stroke-linecap:butt;stroke-linejoin:miter;stroke-opacity:1"
       d="M 42.792685,4.6549461 L 38.383592,8.8035877 L 38.383592,38.749424 L 42.689529,42.712147 L 42.792685,4.6549461 z"
       id="path5548"
       sodipodi:nodetypes="ccccc" />
    <rect
       style="opacity:1;fill:url(#radialGradient5588);fill-opacity:1;stroke:url(#linearGradient5560);stroke-width:1;stroke-linecap:round;stroke-linejoin:miter;stroke-miterlimit:4;stroke-dasharray:none;stroke-dashoffset:0;stroke-opacity:1"
       id="rect4965"
       width="41.015675"
       height="41.064716"
       x="3.5733004"
       y="3.4876688"
       rx="2.5"
       ry="2.5" />
    <rect
       style="opacity:1;fill:url(#linearGradient5572);fill-opacity:1;stroke:url(#linearGradient5690);stroke-width:0.99999988;stroke-linecap:round;stroke-linejoin:miter;stroke-miterlimit:4;stroke-dasharray:none;stroke-dashoffset:0;stroke-opacity:1"
       id="rect5570"
       width="28.971039"
       height="29.070471"
       x="9.4876699"
       y="8.5536394"
       rx="1.4730127"
       ry="1.4730128" />
    <rect
       style="opacity:0.42708333;fill:none;fill-opacity:1;stroke:#ffffff;stroke-width:1;stroke-linecap:round;stroke-linejoin:miter;stroke-miterlimit:4;stroke-dasharray:none;stroke-dashoffset:0;stroke-opacity:1"
       id="rect5580"
       width="39.068611"
       height="38.891056"
       x="4.5731821"
       y="4.5"
       rx="1.339058"
       ry="1.339058" />
    <path
       style="fill:#eff0ed;fill-opacity:1;fill-rule:evenodd;stroke:#eff0ed;stroke-width:0.99999994px;stroke-linecap:butt;stroke-linejoin:miter;stroke-opacity:1"
       d="M 41.821189,5.661065 L 38.067278,9.3248459"
       id="path5574"
       sodipodi:nodetypes="cc" />
    <path
       style="fill:none;fill-rule:evenodd;stroke:url(#linearGradient5952);stroke-width:0.99999994000000003px;stroke-linecap:butt;stroke-linejoin:miter;stroke-opacity:1"
       d="M 37.796393,36.820435 L 41.737999,41.235759"
       id="path5576" />
    <path
       style="fill:none;fill-rule:evenodd;stroke:url(#linearGradient5960);stroke-width:0.99999994000000003px;stroke-linecap:butt;stroke-linejoin:miter;stroke-opacity:1"
       d="M 10.096013,36.958057 L 6.1544068,41.373382"
       id="path5578" />
    <path
       style="font-size:28.6944046px;font-style:normal;font-weight:normal;fill:#000000;fill-opacity:1;stroke:none;stroke-width:1px;stroke-linecap:butt;stroke-linejoin:miter;stroke-opacity:1;font-family:Bitstream Vera Sans;-inkscape-font-specification:Bitstream Vera Sans"
       d="M 25.845051,32.582496 C 27.921827,32.223075 30.132017,31.067228 30.816341,28.938309 C 31.357898,27.225862 30.801689,25.099667 29.171519,24.18339 C 28.136284,23.191948 28.157206,24.986042 27.686471,25.623686 C 26.258797,28.724739 23.87118,31.565971 20.625098,32.825726 C 18.87499,33.456944 16.573743,33.517949 15.243027,32.008945 C 14.005933,30.460347 14.111201,28.216614 14.846039,26.469752 C 15.798181,24.317273 17.870999,22.869912 20.048781,22.137733 C 20.048781,21.066475 20.048781,19.995217 20.048781,18.923959 C 18.432329,18.923959 16.815878,18.923959 15.199426,18.923959 C 15.199426,18.350071 15.199426,17.776183 15.199426,17.202295 C 16.815878,17.202295 18.432329,17.202295 20.048781,17.202295 C 20.048781,16.264945 20.048781,15.327594 20.048781,14.390244 C 20.699187,14.390244 21.349594,14.390244 22,14.390244 C 22,15.327594 22,16.264945 22,17.202295 C 25.376375,17.202295 28.75275,17.202295 32.129124,17.202295 C 32.129124,17.776183 32.129124,18.350071 32.129124,18.923959 C 28.75275,18.923959 25.376375,18.923959 22,18.923959 C 22,19.823051 22,20.722143 22,21.621235 C 24.773302,21.230632 27.833884,21.185836 30.308817,22.687862 C 31.97216,23.670358 33.038644,25.531967 33.016548,27.467131 C 33.147256,29.761638 31.812952,31.956128 29.860516,33.105637 C 28.796062,33.765336 27.587939,34.163359 26.36155,34.390244 C 26.189384,33.787661 26.017217,33.185079 25.845051,32.582496 z M 26.591105,23.314203 C 25.067957,23.111073 23.503855,23.169654 22,23.48637 C 22,25.65758 22,27.82879 22,30 C 24.201377,28.334363 25.675333,25.883661 26.591105,23.314204 L 26.591105,23.314203 z M 20.048781,31.119081 C 20.048781,28.78527 20.048781,26.451458 20.048781,24.117647 C 18.125598,24.933231 16.289723,26.65123 16.318508,28.880918 C 16.264608,29.919574 16.736741,31.168175 17.883357,31.370271 C 18.608914,31.531417 19.363356,31.369707 20.048781,31.119082 L 20.048781,31.119081 z"
       id="text2424" />
  </g>
</svg>
